images/largelogo1.svg

<svg xmlns="http://www.w3.org/2000/svg" id="Layer_1" viewBox="0 0 169.7 45.1" width="169.7" height="45.1"><style>.st0{fill:none}.st1{fill:#616553}.st2{font-family:&apos;IvyJournal-Regular&apos;}.st3{font-size:16px}.st4{font-size:12px}.st5{fill:none;stroke:#a8ad97;stroke-miterlimit:10}.st6{fill:#e2d4b1}.st7{fill:#92b792}.st8{fill:#7fa07f}.st9{fill:#6d8c6e}</style><path d="M57.9 3.6h108.5v39.7H57.9V3.6z" class="st0"/><text class="st1 st2 st3" transform="translate(57.9 19.102)">greengardens</text><text class="st1 st2 st4" transform="translate(57.9 38.303)">succulent shop</text><path d="M50.5 3.6v38" class="st5"/><circle cx="25.7" cy="22.6" r="19.8" class="st6"/><path d="M12.2 37.1l13.5-26.7 13.5 26.7s-4.4 5.1-13.5 5.3c-9.1.3-14.2-6.1-13.5-5.3z" class="st7"/><path d="M25.7 42.4L36.1 14l3.1 23.1s-4 4.9-13.5 5.3zm0 0L15.3 14.1l-3.1 23.1c0-.1 4.1 4.8 13.5 5.2z" class="st8"/><path d="M12.2 37.1s4.6 5.3 13.5 5.3l-5.4-14.7h-6.9l-1.2 9.4zm13.5 5.3s8.2.1 13.5-5.3l-.6-4.6-11.8 6.8-1.1 3.1z" class="st8"/><path d="M32.5 41.2l9.4-16.4-1.3 10.9c0 .1-3.2 4.1-8.1 5.5zm-13.5 0L9.6 24.8l1.3 10.9c0 .1 3.2 4.1 8.1 5.5z" class="st9"/></svg>

<?xml version="1.0" encoding="utf-8"?>
<!-- Generator: Adobe Illustrator 23.0.3, SVG Export Plug-In . SVG Version: 6.00 Build 0)  -->
<svg version="1.1" id="Layer_1" xmlns="http://www.w3.org/2000/svg" xmlns:xlink="http://www.w3.org/1999/xlink" x="0px" y="0px"
	 viewBox="0 0 169.7 45.1" style="enable-background:new 0 0 169.7 45.1;" xml:space="preserve">
<style type="text/css">
	.st0{fill:none;}
	.st1{fill:#1C3E38;}
	.st2{font-family:'Raleway-Regular';}
	.st3{font-size:16px;}
	.st4{font-size:12px;}
	.st5{fill:none;stroke:#D08158;stroke-miterlimit:10;}
	.st6{fill:#E2D4B1;}
	.st7{fill:#92B792;}
	.st8{fill:#7FA07F;}
	.st9{fill:#6D8C6E;}
</style>
<path class="st0" d="M57.9,3.6h108.5v39.7H57.9V3.6z"/>
<text transform="matrix(1 0 0 1 57.9 19.102)" class="st1 st2 st3">greengardens</text>
<text transform="matrix(1 0 0 1 57.9 38.303)" class="st1 st2 st4">succulent shop</text>
<path class="st5" d="M50.5,3.6v38"/>
<circle class="st6" cx="25.7" cy="22.6" r="19.8"/>
<path class="st7" d="M12.2,37.1l13.5-26.7l13.5,26.7c0,0-4.4,5.1-13.5,5.3C16.6,42.7,11.5,36.3,12.2,37.1z"/>
<path class="st8" d="M25.7,42.4L36.1,14l3.1,23.1C39.2,37.1,35.2,42,25.7,42.4z M25.7,42.4L15.3,14.1l-3.1,23.1
	C12.2,37.1,16.3,42,25.7,42.4z"/>
<path class="st8" d="M12.2,37.1c0,0,4.6,5.3,13.5,5.3l-5.4-14.7h-6.9C13.4,27.7,12.2,37.1,12.2,37.1z M25.7,42.4
	c0,0,8.2,0.1,13.5-5.3l-0.6-4.6l-11.8,6.8C26.8,39.3,25.7,42.4,25.7,42.4z"/>
<path class="st9" d="M32.5,41.2l9.4-16.4l-1.3,10.9C40.6,35.8,37.4,39.8,32.5,41.2z M19,41.2L9.6,24.8l1.3,10.9
	C10.9,35.8,14.1,39.8,19,41.2z"/>
</svg>
